X:59
T: DREI WOCHEN VOR OSTERN
N: E1056
O: Europa, Mitteleuropa, Deutschland, Hessen, Nassau; Rheinland
R: Tanz - Lied, Scherz
M: 3/4
L: 1/8
K: G
Bc | d2B2d2 | c2A2
AB | c2e2c2 | B2z2
Bc | d2B2d2 | c2A2
AB | c2A2F2 | G2z2

@@@ Tune index: 4743
